X: 20772
T: LADY OF THE LAKE
C:
%R: jig
B: Elias Howe "The Musician's Companion" 1843 p.77 #2
S: http://imslp.org/wiki/The_Musician's_Companion_(Howe,_Elias)
Z: 2015 John Chambers <jc:trillian.mit.edu>
M: 6/8
L: 1/8
K: C
% - - - - - - - - - - - - - - - - - - - - - - - - -
c |\
ede c2e | d2e G2c | ede GAB | c3 zc2 |\
ede c2e | d2e G2c | ede GAB | c3- c2 :|
|: e/f/ |\
geg a2g | fef g2f | ede fef | d3 z2e/f/ |\
geg a2g | fef g2f | ede fed | c3- c2 :|
% - - - - - - - - - - - - - - - - - - - - - - - - -

%%sep 1 1 500

